apps/sim/public/logo/426-240/b&w/b&w.svg

<svg fill="none" height="1200" viewBox="0 0 2130 1200" width="2130" xmlns="http://www.w3.org/2000/svg" xmlns:xlink="http://www.w3.org/1999/xlink"><clipPath id="a"><path d="m0 0h2130v1200h-2130z"/></clipPath><g clip-path="url(#a)"><path d="m2130 0h-2130v1200h2130z" fill="#fff"/><g fill="#000"><path d="m628 712.826h58.359c0 16.044 5.836 28.837 17.509 38.379 11.671 9.106 27.45 13.659 47.335 13.659 21.615 0 38.258-4.119 49.929-12.36 11.672-8.672 17.509-20.164 17.509-34.475 0-10.407-3.243-19.081-9.727-26.019-6.052-6.938-17.292-12.577-33.719-16.913l-55.765-13.009c-28.099-6.938-49.065-17.564-62.899-31.875-13.401-14.31-20.101-33.174-20.101-56.591 0-19.515 4.971-36.427 14.913-50.738 10.376-14.31 24.425-25.369 42.149-33.174 18.156-7.807 38.907-11.71 62.25-11.71 23.344 0 43.445 4.12 60.305 12.36 17.291 8.239 30.692 19.732 40.202 34.475 9.944 14.745 15.13 32.307 15.563 52.689h-58.359c-.433-16.478-5.836-29.271-16.212-38.379-10.374-9.106-24.856-13.659-43.444-13.659-19.021 0-33.719 4.119-44.093 12.358-10.377 8.241-15.563 19.515-15.563 33.826 0 21.249 15.563 35.776 46.688 43.583l55.764 13.659c26.803 6.071 46.904 16.046 60.306 29.924 13.399 13.442 20.101 31.873 20.101 55.29 0 19.949-5.405 37.511-16.212 52.689-10.807 14.745-25.72 26.237-44.741 34.477-18.589 7.805-40.635 11.708-66.141 11.708-37.177 0-66.789-9.106-88.836-27.32-22.046-18.214-33.07-42.499-33.07-72.854z"/><path d="m918.324 805v-316.743c24.18 8.812 34.844 8.812 60.644 0v316.743zm29.677-337.68c-10.753 0-20.215-3.887-28.387-11.659-7.743-8.206-11.614-17.706-11.614-28.502 0-11.226 3.871-20.727 11.614-28.5 8.172-7.772 17.634-11.659 28.387-11.659 11.182 0 20.644 3.887 28.387 11.659 7.741 7.773 11.612 17.274 11.612 28.5 0 10.796-3.871 20.296-11.612 28.502-7.743 7.772-17.205 11.659-28.387 11.659z"/><path d="m1087 805h-61v-317.898h54.51v53.638c6.49-17.769 19.03-32.836 36.34-44.537 17.73-12.135 39.15-18.203 64.24-18.203 28.12 0 51.48 7.585 70.08 22.753 18.6 15.17 30.72 35.323 36.34 60.46h-11.03c4.32-25.137 16.22-45.29 35.69-60.46 19.47-15.168 43.48-22.753 72.03-22.753 36.34 0 64.89 10.618 85.65 31.856 20.77 21.236 31.15 50.274 31.15 87.112v208.032h-59.7v-193.079c0-25.137-6.49-44.423-19.47-57.859-12.54-13.87-29.63-20.804-51.26-20.804-15.14 0-28.55 3.467-40.23 10.403-11.25 6.5-20.12 16.035-26.61 28.604-6.49 12.568-9.73 27.304-9.73 44.206v188.529h-60.35v-193.73c0-25.137-6.27-44.206-18.82-57.208-12.54-13.436-29.63-20.153-51.26-20.153-15.14 0-28.55 3.467-40.23 10.401-11.25 6.502-20.12 16.037-26.61 28.604-6.49 12.136-9.73 26.655-9.73 43.557z"/></g></g></svg>

<svg width="2130" height="1200" viewBox="0 0 2130 1200" fill="none" xmlns="http://www.w3.org/2000/svg">
<g clip-path="url(#clip0_1184_347)">
<path d="M2130 0H0V1200H2130V0Z" fill="white"/>
<path d="M628 712.826H686.359C686.359 728.87 692.195 741.663 703.868 751.205C715.539 760.311 731.318 764.864 751.203 764.864C772.818 764.864 789.461 760.745 801.132 752.504C812.804 743.832 818.641 732.34 818.641 718.029C818.641 707.622 815.398 698.948 808.914 692.01C802.862 685.072 791.622 679.433 775.195 675.097L719.43 662.088C691.331 655.15 670.365 644.524 656.531 630.213C643.13 615.903 636.43 597.039 636.43 573.622C636.43 554.107 641.401 537.195 651.343 522.884C661.719 508.574 675.768 497.515 693.492 489.71C711.648 481.903 732.399 478 755.742 478C779.086 478 799.187 482.12 816.047 490.36C833.338 498.599 846.739 510.092 856.249 524.835C866.193 539.58 871.379 557.142 871.812 577.524H813.453C813.02 561.046 807.617 548.253 797.241 539.145C786.867 530.039 772.385 525.486 753.797 525.486C734.776 525.486 720.078 529.605 709.704 537.844C699.327 546.085 694.141 557.359 694.141 571.67C694.141 592.919 709.704 607.446 740.829 615.253L796.593 628.912C823.396 634.983 843.497 644.958 856.899 658.836C870.298 672.278 877 690.709 877 714.126C877 734.075 871.595 751.637 860.788 766.815C849.981 781.56 835.068 793.052 816.047 801.292C797.458 809.097 775.412 813 749.906 813C712.729 813 683.117 803.894 661.07 785.68C639.024 767.466 628 743.181 628 712.826Z" fill="black"/>
<path d="M918.324 805V488.257C942.504 497.069 953.168 497.069 978.968 488.257V805H918.324ZM948.001 467.32C937.248 467.32 927.786 463.433 919.614 455.661C911.871 447.455 908 437.955 908 427.159C908 415.933 911.871 406.432 919.614 398.659C927.786 390.887 937.248 387 948.001 387C959.183 387 968.645 390.887 976.388 398.659C984.129 406.432 988 415.933 988 427.159C988 437.955 984.129 447.455 976.388 455.661C968.645 463.433 959.183 467.32 948.001 467.32Z" fill="black"/>
<path d="M1087 805H1026V487.102H1080.51V540.74C1087 522.971 1099.54 507.904 1116.85 496.203C1134.58 484.068 1156 478 1181.09 478C1209.21 478 1232.57 485.585 1251.17 500.753C1269.77 515.923 1281.89 536.076 1287.51 561.213H1276.48C1280.8 536.076 1292.7 515.923 1312.17 500.753C1331.64 485.585 1355.65 478 1384.2 478C1420.54 478 1449.09 488.618 1469.85 509.856C1490.62 531.092 1501 560.13 1501 596.968V805H1441.3V611.921C1441.3 586.784 1434.81 567.498 1421.83 554.062C1409.29 540.192 1392.2 533.258 1370.57 533.258C1355.43 533.258 1342.02 536.725 1330.34 543.661C1319.09 550.161 1310.22 559.696 1303.73 572.265C1297.24 584.833 1294 599.569 1294 616.471V805H1233.65V611.27C1233.65 586.133 1227.38 567.064 1214.83 554.062C1202.29 540.626 1185.2 533.909 1163.57 533.909C1148.43 533.909 1135.02 537.376 1123.34 544.31C1112.09 550.812 1103.22 560.347 1096.73 572.914C1090.24 585.05 1087 599.569 1087 616.471V805Z" fill="black"/>
</g>
<defs>
<clipPath id="clip0_1184_347">
<rect width="2130" height="1200" fill="white"/>
</clipPath>
</defs>
</svg>
